resources/haticons/SVG/transform.svg

<!-- Generated by IcoMoon.io -->
<svg version="1.1" xmlns="http://www.w3.org/2000/svg" width="24" height="24" viewBox="0 0 24 24">
<title>transform</title>
<path d="M9.984 8.016v-2.016h6q0.797 0 1.406 0.609t0.609 1.406v6h-2.016v-6h-6zM21.984 18h-3.984v2.016h2.016l-3 3-3-3h1.969v-2.016h-7.969q-0.797 0-1.406-0.609t-0.609-1.406v-7.969h-3.984v-2.016h3.984v-2.016h-2.016l3-3 3 3h-1.969v12h13.969v2.016z"></path>
</svg>

<svg xmlns="http://www.w3.org/2000/svg" width="24" height="24"><path d="M9.984 8.016V6h6q.797 0 1.406.609t.609 1.406v6h-2.016v-6h-6zm12 9.984H18v2.016h2.016l-3 3-3-3h1.969V18H8.016q-.797 0-1.406-.609t-.609-1.406V8.016H2.017V6h3.984V3.984H3.985l3-3 3 3H8.016v12h13.969V18z"/></svg>
